src/assets/img/list-bullet-dark.svg

<svg width="8" height="8" viewBox="0 0 8 8" fill="none" xmlns="http://www.w3.org/2000/svg">
<path d="M4.95843 0.279933C5.5378 -0.353974 6.58452 0.173492 6.41974 1.01632L6.05454 2.88412C5.99767 3.17501 6.09646 3.47451 6.31525 3.67447L7.72007 4.95843C8.35397 5.5378 7.82651 6.58452 6.98368 6.41974L5.11588 6.05454C4.82499 5.99767 4.52549 6.09646 4.32553 6.31525L3.04157 7.72007C2.4622 8.35397 1.41548 7.82651 1.58026 6.98368L1.94545 5.11588C2.00233 4.82499 1.90354 4.52549 1.68475 4.32553L0.279933 3.04157C-0.353974 2.4622 0.173492 1.41548 1.01632 1.58026L2.88412 1.94545C3.17501 2.00233 3.47451 1.90354 3.67447 1.68475L4.95843 0.279933Z" fill="#E4E2E6"/>
</svg>

<svg width="8" height="8" fill="none" xmlns="http://www.w3.org/2000/svg"><g clip-path="url(#clip0_2561_13534)"><path d="M4.958.28c.58-.634 1.627-.107 1.462.736l-.365 1.868a.85.85 0 00.26.79L7.72 4.958c.634.58.107 1.627-.736 1.462l-1.868-.365a.85.85 0 00-.79.26L3.042 7.72c-.58.634-1.627.107-1.462-.736l.365-1.868a.85.85 0 00-.26-.79L.28 3.042c-.634-.58-.107-1.627.736-1.462l1.868.365a.85.85 0 00.79-.26L4.958.28z" fill="1B1B1F"/></g><defs><clipPath id="clip0_2561_13534"><path fill="1B1B1F" d="M0 0h8v8H0z"/></clipPath></defs></svg>
